Newaita/actions/24/view-fullscreen.svg

<svg height="24" viewBox="0 0 24 24" width="24" xmlns="http://www.w3.org/2000/svg"><g fill="#424242"><path d="m6.449219 9.117188h10.914062v.992187h-10.914062zm0 0"/><path d="m6.945312 6.140625c-.550781 0-.992187.441406-.992187.992187v9.921876c0 .550781.441406.992187.992187.992187h9.921876c.550781 0 .992187-.441406.992187-.992187v-9.921876c0-.550781-.441406-.992187-.992187-.992187zm.496094.992187h8.929688c.277344 0 .496094.222657.496094.496094v8.929688c0 .277344-.21875.496094-.496094.496094h-8.929688c-.273437 0-.496094-.21875-.496094-.496094v-8.929688c0-.273437.222657-.496094.496094-.496094zm0 0"/><path d="m3.96875 2.171875c-1.097656 0-1.984375.886719-1.984375 1.984375v3.96875h1.984375v-2.976562c0-.550782.441406-.992188.992188-.992188h2.976562v-1.984375zm11.90625 0v1.984375h2.976562c.550782 0 .992188.441406.992188.992188v2.976562h1.988281v-3.96875c0-1.097656-.886719-1.984375-1.988281-1.984375zm-13.890625 13.890625v3.96875c0 1.101562.886719 1.988281 1.984375 1.988281h3.96875v-1.988281h-2.976562c-.550782 0-.992188-.441406-.992188-.992188v-2.976562zm17.859375 0v2.976562c0 .550782-.441406.992188-.992188.992188h-2.976562v1.988281h3.96875c1.101562 0 1.988281-.886719 1.988281-1.988281v-3.96875zm0 0"/></g></svg>

<svg xmlns="http://www.w3.org/2000/svg" xmlns:xlink="http://www.w3.org/1999/xlink" width="24px" height="24px" viewBox="0 0 24 24" version="1.1">
<g id="surface1">
     <defs>
  <style id="current-color-scheme" type="text/css">
   .ColorScheme-Text { color:#424242; } .ColorScheme-Highlight { color:#eeeeee; }
  </style>
 </defs>
<path style="fill:currentColor" class="ColorScheme-Text" d="M 6.449219 9.117188 L 17.363281 9.117188 L 17.363281 10.109375 L 6.449219 10.109375 Z M 6.449219 9.117188 "/>
     <defs>
  <style id="current-color-scheme" type="text/css">
   .ColorScheme-Text { color:#424242; } .ColorScheme-Highlight { color:#eeeeee; }
  </style>
 </defs>
<path style="fill:currentColor" class="ColorScheme-Text" d="M 6.945312 6.140625 C 6.394531 6.140625 5.953125 6.582031 5.953125 7.132812 L 5.953125 17.054688 C 5.953125 17.605469 6.394531 18.046875 6.945312 18.046875 L 16.867188 18.046875 C 17.417969 18.046875 17.859375 17.605469 17.859375 17.054688 L 17.859375 7.132812 C 17.859375 6.582031 17.417969 6.140625 16.867188 6.140625 Z M 7.441406 7.132812 L 16.371094 7.132812 C 16.648438 7.132812 16.867188 7.355469 16.867188 7.628906 L 16.867188 16.558594 C 16.867188 16.835938 16.648438 17.054688 16.371094 17.054688 L 7.441406 17.054688 C 7.167969 17.054688 6.945312 16.835938 6.945312 16.558594 L 6.945312 7.628906 C 6.945312 7.355469 7.167969 7.132812 7.441406 7.132812 Z M 7.441406 7.132812 "/>
     <defs>
  <style id="current-color-scheme" type="text/css">
   .ColorScheme-Text { color:#424242; } .ColorScheme-Highlight { color:#eeeeee; }
  </style>
 </defs>
<path style="fill:currentColor" class="ColorScheme-Text" d="M 3.96875 2.171875 C 2.871094 2.171875 1.984375 3.058594 1.984375 4.15625 L 1.984375 8.125 L 3.96875 8.125 L 3.96875 5.148438 C 3.96875 4.597656 4.410156 4.15625 4.960938 4.15625 L 7.9375 4.15625 L 7.9375 2.171875 Z M 15.875 2.171875 L 15.875 4.15625 L 18.851562 4.15625 C 19.402344 4.15625 19.84375 4.597656 19.84375 5.148438 L 19.84375 8.125 L 21.832031 8.125 L 21.832031 4.15625 C 21.832031 3.058594 20.945312 2.171875 19.84375 2.171875 Z M 1.984375 16.0625 L 1.984375 20.03125 C 1.984375 21.132812 2.871094 22.019531 3.96875 22.019531 L 7.9375 22.019531 L 7.9375 20.03125 L 4.960938 20.03125 C 4.410156 20.03125 3.96875 19.589844 3.96875 19.039062 L 3.96875 16.0625 Z M 19.84375 16.0625 L 19.84375 19.039062 C 19.84375 19.589844 19.402344 20.03125 18.851562 20.03125 L 15.875 20.03125 L 15.875 22.019531 L 19.84375 22.019531 C 20.945312 22.019531 21.832031 21.132812 21.832031 20.03125 L 21.832031 16.0625 Z M 19.84375 16.0625 "/>
</g>
</svg>
